components/AppDevelopmentCommon/Svg/svgs/titledPyTorch.svg

<svg width="75" height="143" viewBox="0 0 75 143" fill="none" xmlns="http://www.w3.org/2000/svg">
<path d="M11.774 124.126C11.774 125.17 11.414 126.04 10.694 126.736C9.986 127.42 8.9 127.762 7.436 127.762H5.024V133H3.386V120.454H7.436C8.852 120.454 9.926 120.796 10.658 121.48C11.402 122.164 11.774 123.046 11.774 124.126ZM7.436 126.412C8.348 126.412 9.02 126.214 9.452 125.818C9.884 125.422 10.1 124.858 10.1 124.126C10.1 122.578 9.212 121.804 7.436 121.804H5.024V126.412H7.436ZM22.3058 123.136L16.3658 137.644H14.6738L16.6178 132.892L12.6398 123.136H14.4578L17.5538 131.128L20.6138 123.136H22.3058ZM31.6744 120.454V121.786H28.2544V133H26.6164V121.786H23.1784V120.454H31.6744ZM37.9927 133.162C37.0687 133.162 36.2287 132.952 35.4727 132.532C34.7287 132.112 34.1407 131.518 33.7087 130.75C33.2887 129.97 33.0787 129.07 33.0787 128.05C33.0787 127.042 33.2947 126.154 33.7267 125.386C34.1707 124.606 34.7707 124.012 35.5267 123.604C36.2827 123.184 37.1287 122.974 38.0647 122.974C39.0007 122.974 39.8467 123.184 40.6027 123.604C41.3587 124.012 41.9527 124.6 42.3847 125.368C42.8287 126.136 43.0507 127.03 43.0507 128.05C43.0507 129.07 42.8227 129.97 42.3667 130.75C41.9227 131.518 41.3167 132.112 40.5487 132.532C39.7807 132.952 38.9287 133.162 37.9927 133.162ZM37.9927 131.722C38.5807 131.722 39.1327 131.584 39.6487 131.308C40.1647 131.032 40.5787 130.618 40.8907 130.066C41.2147 129.514 41.3767 128.842 41.3767 128.05C41.3767 127.258 41.2207 126.586 40.9087 126.034C40.5967 125.482 40.1887 125.074 39.6847 124.81C39.1807 124.534 38.6347 124.396 38.0467 124.396C37.4467 124.396 36.8947 124.534 36.3907 124.81C35.8987 125.074 35.5027 125.482 35.2027 126.034C34.9027 126.586 34.7527 127.258 34.7527 128.05C34.7527 128.854 34.8967 129.532 35.1847 130.084C35.4847 130.636 35.8807 131.05 36.3727 131.326C36.8647 131.59 37.4047 131.722 37.9927 131.722ZM46.8424 124.738C47.1304 124.174 47.5384 123.736 48.0664 123.424C48.6064 123.112 49.2604 122.956 50.0284 122.956V124.648H49.5964C47.7604 124.648 46.8424 125.644 46.8424 127.636V133H45.2044V123.136H46.8424V124.738ZM51.3072 128.05C51.3072 127.03 51.5112 126.142 51.9192 125.386C52.3272 124.618 52.8912 124.024 53.6112 123.604C54.3432 123.184 55.1772 122.974 56.1132 122.974C57.3252 122.974 58.3212 123.268 59.1012 123.856C59.8932 124.444 60.4152 125.26 60.6672 126.304H58.9032C58.7352 125.704 58.4052 125.23 57.9132 124.882C57.4332 124.534 56.8332 124.36 56.1132 124.36C55.1772 124.36 54.4212 124.684 53.8452 125.332C53.2692 125.968 52.9812 126.874 52.9812 128.05C52.9812 129.238 53.2692 130.156 53.8452 130.804C54.4212 131.452 55.1772 131.776 56.1132 131.776C56.8332 131.776 57.4332 131.608 57.9132 131.272C58.3932 130.936 58.7232 130.456 58.9032 129.832H60.6672C60.4032 130.84 59.8752 131.65 59.0832 132.262C58.2912 132.862 57.3012 133.162 56.1132 133.162C55.1772 133.162 54.3432 132.952 53.6112 132.532C52.8912 132.112 52.3272 131.518 51.9192 130.75C51.5112 129.982 51.3072 129.082 51.3072 128.05ZM67.7488 122.956C68.4928 122.956 69.1648 123.118 69.7648 123.442C70.3648 123.754 70.8328 124.228 71.1688 124.864C71.5168 125.5 71.6908 126.274 71.6908 127.186V133H70.0708V127.42C70.0708 126.436 69.8248 125.686 69.3328 125.17C68.8408 124.642 68.1688 124.378 67.3168 124.378C66.4528 124.378 65.7628 124.648 65.2468 125.188C64.7428 125.728 64.4908 126.514 64.4908 127.546V133H62.8528V119.68H64.4908V124.54C64.8148 124.036 65.2588 123.646 65.8228 123.37C66.3988 123.094 67.0408 122.956 67.7488 122.956Z" fill="#A0A0A0"/>
<path d="M63.9495 26.4506C78.6835 41.2137 78.6835 64.8962 63.9495 79.7619C49.5225 94.525 25.7844 94.525 11.0505 79.7619C-3.68349 64.9987 -3.68349 41.2137 11.0505 26.4506L37.4488 0V13.2253L34.9932 15.6858L17.4966 33.217C6.44611 44.0843 6.44611 61.9231 17.4966 72.9954C28.3424 84.0678 46.146 84.0678 57.1965 72.9954C68.2469 62.1281 68.2469 44.2894 57.1965 33.217L63.9495 26.4506ZM50.7503 24.8102C48.0379 24.8102 45.839 22.607 45.839 19.8892C45.839 17.1714 48.0379 14.9682 50.7503 14.9682C53.4628 14.9682 55.6617 17.1714 55.6617 19.8892C55.6617 22.607 53.4628 24.8102 50.7503 24.8102Z" fill="#A3A3A3"/>
</svg>

<svg xmlns="http://www.w3.org/2000/svg" width="75" height="143" fill="none">
  <path fill="#A0A0A0" d="M11.774 124.126c0 1.044-.36 1.914-1.08 2.61-.708.684-1.794 1.026-3.258 1.026H5.024V133H3.386v-12.546h4.05c1.416 0 2.49.342 3.222 1.026.744.684 1.116 1.566 1.116 2.646Zm-4.338 2.286c.912 0 1.584-.198 2.016-.594.432-.396.648-.96.648-1.692 0-1.548-.888-2.322-2.664-2.322H5.024v4.608h2.412Zm14.87-3.276-5.94 14.508h-1.692l1.944-4.752-3.978-9.756h1.818l3.096 7.992 3.06-7.992h1.692Zm9.368-2.682v1.332h-3.42V133h-1.638v-11.214h-3.438v-1.332h8.496Zm6.319 12.708c-.924 0-1.764-.21-2.52-.63a4.58 4.58 0 0 1-1.764-1.782c-.42-.78-.63-1.68-.63-2.7 0-1.008.216-1.896.648-2.664a4.51 4.51 0 0 1 1.8-1.782c.756-.42 1.602-.63 2.538-.63.936 0 1.782.21 2.538.63.756.408 1.35.996 1.782 1.764.444.768.666 1.662.666 2.682s-.228 1.92-.684 2.7a4.634 4.634 0 0 1-1.818 1.782c-.768.42-1.62.63-2.556.63Zm0-1.44c.588 0 1.14-.138 1.656-.414.516-.276.93-.69 1.242-1.242.324-.552.486-1.224.486-2.016s-.156-1.464-.468-2.016c-.312-.552-.72-.96-1.224-1.224a3.356 3.356 0 0 0-1.638-.414c-.6 0-1.152.138-1.656.414-.492.264-.888.672-1.188 1.224-.3.552-.45 1.224-.45 2.016 0 .804.144 1.482.432 2.034.3.552.696.966 1.188 1.242a3.372 3.372 0 0 0 1.62.396Zm8.85-6.984a3.16 3.16 0 0 1 1.223-1.314c.54-.312 1.194-.468 1.962-.468v1.692h-.432c-1.836 0-2.754.996-2.754 2.988V133h-1.638v-9.864h1.638v1.602Zm4.464 3.312c0-1.02.204-1.908.612-2.664a4.407 4.407 0 0 1 1.692-1.782c.732-.42 1.566-.63 2.502-.63 1.212 0 2.208.294 2.988.882.792.588 1.314 1.404 1.566 2.448h-1.764a2.518 2.518 0 0 0-.99-1.422c-.48-.348-1.08-.522-1.8-.522-.936 0-1.692.324-2.268.972-.576.636-.864 1.542-.864 2.718 0 1.188.288 2.106.864 2.754.576.648 1.332.972 2.268.972.72 0 1.32-.168 1.8-.504.48-.336.81-.816.99-1.44h1.764c-.264 1.008-.792 1.818-1.584 2.43-.792.6-1.782.9-2.97.9-.936 0-1.77-.21-2.502-.63a4.407 4.407 0 0 1-1.692-1.782c-.408-.768-.612-1.668-.612-2.7Zm16.442-5.094c.744 0 1.416.162 2.016.486.6.312 1.068.786 1.404 1.422.348.636.522 1.41.522 2.322V133h-1.62v-5.58c0-.984-.246-1.734-.738-2.25-.492-.528-1.164-.792-2.016-.792-.864 0-1.554.27-2.07.81-.504.54-.756 1.326-.756 2.358V133h-1.638v-13.32h1.638v4.86a3.24 3.24 0 0 1 1.332-1.17c.576-.276 1.218-.414 1.926-.414Z" />
  <path fill="#A3A3A3" d="M63.95 26.45c14.733 14.764 14.733 38.446 0 53.312-14.428 14.763-38.166 14.763-52.9 0-14.733-14.763-14.733-38.548 0-53.311L37.45 0v13.225l-2.456 2.46-17.496 17.532c-11.05 10.867-11.05 28.706 0 39.778 10.845 11.073 28.649 11.073 39.7 0 11.05-10.867 11.05-28.706 0-39.778l6.752-6.766Zm-13.2-1.64a4.916 4.916 0 0 1-4.911-4.92 4.916 4.916 0 0 1 4.911-4.922 4.916 4.916 0 0 1 4.912 4.921 4.916 4.916 0 0 1-4.912 4.921Z" />
</svg>
